X:534
T:You'll Not Deceive Me Again
M:C
L:1/8
B:O'Neill's 534
N:"With feeling"
Z:Transcribed by Dave Wooldridge
K:G
GE|D2 EG B2 gf|efed B2 AB|d2 ef gedc|B2 G/2B/2A/2G/2 E2 GE|
D2 GA B2 ed|dB AG g3 e|dc BG AG ED|DE GA G2||
Bc|d2 eg f2 fg|ag fe d3 e/2f/2|g3 f e2 dc|BG AG E2 GE|
D2 EG G2 gf|ef ed B2 ed|cB cAG AG ED|DE GA G2||
